sources/images/svg/phone.svg

<?xml version="1.0" encoding="UTF-8" standalone="no"?>
<svg width="15px" height="15px" viewBox="0 0 15 15" version="1.1" xmlns="http://www.w3.org/2000/svg" xmlns:xlink="http://www.w3.org/1999/xlink" xmlns:sketch="http://www.bohemiancoding.com/sketch/ns">
    <!-- Generator: Sketch 3.0.4 (8053) - http://www.bohemiancoding.com/sketch -->
    <title>phone</title>
    <desc>Created with Sketch.</desc>
    <defs></defs>
    <g id="Page-1" stroke="none" stroke-width="1" fill="none" fill-rule="evenodd" sketch:type="MSPage">
        <g id="Landscape-Retina" sketch:type="MSArtboardGroup" transform="translate(-998.000000, -742.000000)" fill="#0045D2">
            <g id="phone" sketch:type="MSLayerGroup" transform="translate(998.000000, 742.000000)">
                <path d="M11.7755769,15 L11.6630769,15 C9.72288462,15 5.79115385,13.0459615 3.87288462,11.1274038 C1.95432692,9.20913462 0,5.27740385 0,3.33663462 L0,3.22413462 L0.0623076923,3.13067308 C0.529615385,2.42942308 2.13692308,0.1425 3.19442308,0.1425 C4.07711538,0.1425 5.88403846,1.78298077 6.41625,3.06778846 C6.73990385,3.84894231 6.52096154,4.29980769 6.28009615,4.54067308 C5.89009615,4.93067308 5.50009615,5.17153846 5.18682692,5.36509615 C4.68144231,5.6775 4.50692308,5.80355769 4.50692308,6.15980769 C4.50692308,6.94701923 5.40836538,7.84846154 6.28009615,8.71990385 C7.15240385,9.5925 8.05355769,10.4933654 8.84019231,10.4933654 C9.19644231,10.4933654 9.32278846,10.3185577 9.63519231,9.81346154 C9.82875,9.50019231 10.0701923,9.10990385 10.4593269,8.71990385 C10.6546154,8.52490385 10.9153846,8.42192308 11.2139423,8.42192308 C12.57,8.42192308 14.8575,10.7284615 14.8575,11.8058654 C14.8575,12.8633654 12.5702885,14.4703846 11.8690385,14.9376923 L11.7755769,15" id="Fill-1" sketch:type="MSShapeGroup"></path>
            </g>
        </g>
    </g>
</svg>

<svg width="15" height="15" viewBox="0 0 15 15" xmlns="http://www.w3.org/2000/svg"><path d="M11.776 15h-.113c-1.94 0-5.872-1.954-7.79-3.873C1.953 9.21 0 5.277 0 3.337v-.113l.062-.093C.53 2.43 2.137.145 3.194.145c.883 0 2.69 1.64 3.222 2.925.324.78.105 1.23-.136 1.472-.39.39-.78.632-1.093.825-.506.313-.68.44-.68.795 0 .787.9 1.688 1.773 2.56.872.872 1.774 1.773 2.56 1.773.356 0 .483-.174.795-.68.194-.313.435-.703.824-1.093.194-.195.454-.298.753-.298 1.356 0 3.643 2.306 3.643 3.384 0 1.057-2.287 2.664-2.988 3.132l-.094.062" id="Fill-1" fill="#0045D2" fill-rule="evenodd"/></svg>
